X: 14429
T: Galway Rambler, The
R: reel
M: 4/4
K: Dmajor
D2 AD BDAF|DFAF EAFE|D2 AD BDAB|dBAF EAFE|
D2 AD BDAF|DFAF EAFE|D2 AD BDAB|dBAF E2 AB||
d2 fd edfe|defd edBc|d2 fd edfe|dBAF ~E3c|
d2 fd edfe|defd e3g|fdef dBAF|BFAF EAFE||

